src/assets/images/icons/linkedin-logo.svg

<svg width="30" height="32" viewBox="0 0 30 32" fill="none" xmlns="http://www.w3.org/2000/svg">
<path d="M6.71518 31.7647H0.495536V10.557H6.71518V31.7647ZM3.60201 7.66411C1.61317 7.66411 0 5.91985 0 3.81398C1.42353e-08 2.80245 0.379496 1.83235 1.055 1.11709C1.73051 0.401828 2.6467 0 3.60201 0C4.55732 0 5.47351 0.401828 6.14901 1.11709C6.82452 1.83235 7.20402 2.80245 7.20402 3.81398C7.20402 5.91985 5.59018 7.66411 3.60201 7.66411ZM29.9933 31.7647H23.7871V21.4409C23.7871 18.9805 23.7402 15.8253 20.5533 15.8253C17.3196 15.8253 16.8241 18.4984 16.8241 21.2637V31.7647H10.6112V10.557H16.5763V13.45H16.6634C17.4937 11.7837 19.5221 10.0252 22.5482 10.0252C28.8429 10.0252 30 14.4143 30 20.115V31.7647H29.9933Z" fill="black"/>
</svg>

<svg width="30" height="32" fill="none" xmlns="http://www.w3.org/2000/svg"><path d="M6.715 31.765H.495V10.557h6.22v21.208zm-3.113-24.1C1.613 7.664 0 5.92 0 3.813a3.93 3.93 0 0 1 1.055-2.697A3.504 3.504 0 0 1 3.602 0c.955 0 1.872.402 2.547 1.117a3.93 3.93 0 0 1 1.055 2.697c0 2.106-1.614 3.85-3.602 3.85zm26.391 24.1h-6.206V21.44c0-2.46-.047-5.616-3.234-5.616-3.233 0-3.729 2.673-3.729 5.439v10.5h-6.213V10.558h5.965v2.893h.087c.83-1.666 2.86-3.425 5.885-3.425 6.295 0 7.452 4.39 7.452 10.09v11.65h-.007z" fill="#000"/></svg>
